storage/app/icons/phosphoricons/light/joystick-light.svg

<svg xmlns="http://www.w3.org/2000/svg" fill="currentColor" viewBox="0 0 256 256"><path d="M208 146h-74V93.52a38 38 0 1 0-12 0V146H48a14 14 0 0 0-14 14v48a14 14 0 0 0 14 14h160a14 14 0 0 0 14-14v-48a14 14 0 0 0-14-14M102 56a26 26 0 1 1 26 26 26 26 0 0 1-26-26m108 152a2 2 0 0 1-2 2H48a2 2 0 0 1-2-2v-48a2 2 0 0 1 2-2h160a2 2 0 0 1 2 2Zm-42-94h32a6 6 0 0 1 0 12h-32a6 6 0 0 1 0-12"/></svg>

<svg xmlns="http://www.w3.org/2000/svg" viewBox="0 0 256 256" fill="currentColor"><path d="M208,146H134V93.52a38,38,0,1,0-12,0V146H48a14,14,0,0,0-14,14v48a14,14,0,0,0,14,14H208a14,14,0,0,0,14-14V160A14,14,0,0,0,208,146ZM102,56a26,26,0,1,1,26,26A26,26,0,0,1,102,56ZM210,208a2,2,0,0,1-2,2H48a2,2,0,0,1-2-2V160a2,2,0,0,1,2-2H208a2,2,0,0,1,2,2Zm-42-94h32a6,6,0,0,1,0,12H168a6,6,0,0,1,0-12Z"/></svg>
